X:1
T:Jesus shall reign where’er the sun
T:Thomas Jarman
T:Text: Isaac Watts, on Ps. 72.
T:This edition by Edmund Gooch released into the public domain, August 2014.
T:Jesus shall reign where’er the sun
T:Lemington. L.M. Psalm 72. Dr. Watts.
C:Thomas Jarman
Z:Text: Isaac Watts, on Ps. 72.
%%score [ 1 2 3 4 ]
L:1/8
M:2/2
K:C
V:1 treble nm="Soprano" snm="S."
V:2 treble nm="Alto" snm="A."
V:3 treble-8 transpose=-12 nm="Tenor" snm="T."
V:4 bass nm="Bass" snm="B."
V:1
"^LIVELY." G2 | c4 B4 | (c2 BA G2) F2 | E4 D4 | C4 z2 e2 | d4 c4 | (Bcde d2) c2 | B4 A4 | %8
w: Bless-|ings a-|bound _ _ _ where-|e’er he|reigns, The|pris- ’ner|leaps _ _ _ _ to|lose his|
w: Je-|sus shall|reign _ _ _ wher-|e’er the|sun Doth|his suc-|ces- * * * * sive|jour- neys|
w: For|him shall|end- * * * less|prayer be|made, And|prai- ses|throng _ _ _ _ to|crown his|
 G4 z2 G2 | A4 B4 | !wedge!c4 z2 d2 | (e2 de f2) e2 | (e3 d/e/ !fermata!d2) d2 | g4 f4 | %14
w: chains, The|wea- ry|find e-|ter- * * * nal|rest, _ _ _ And|all the|
w: run; His|king- dom|stretch from|shore _ _ _ to|shore _ _ _ Till|moons shall|
w: head: His|name like|sweet per-|fume _ _ _ shall|rise _ _ _ With|ev- ’ry|
 (ecge c2) f2 | e4 d4 | c4 |] %17
w: sons _ _ _ _ of|want are|blest.|
w: wax _ _ _ _ and|wane no|more.|
w: morn- * * * * ing|sac- ri-|fice.|
V:2
 E2 | G4 F4 | E6 D2 | C4 B,4 | C4 z2 G2 | G4 ^F4 | G6 E2 | D4 C4 | B,4 z2 E2 | F4 F4 | %10
w: Bless-|ings a-|bound where-|e’er he|reigns, The|pris- ’ner|leaps to|lose his|chains, The|wea- ry|
w: Je-|sus shall|reign wher-|e’er the|sun Doth|his suc-|ces- sive|jour- neys|run; His|king- dom|
w: For|him shall|end- less|prayer be|made, And|prai- ses|throng to|crown his|head: His|name like|
 !wedge!E4 z2 G2 | G6 G2 | !fermata!G6 B,2 | C4 (B,2 D2) | G6 A2 | G4 F4 | E4 |] %17
w: find e-|ter- nal|rest, And|all the _|sons of|want are|blest.|
w: stretch from|shore to|shore Till|moons shall _|wax and|wane no|more.|
w: sweet per-|fume shall|rise With|ev- ’ry _|morn- ing|sac- ri-|fice.|
V:3
 c2 | e4 d4 | (e2 d2 c2) A2 | G4 F4 | E4 z2 c2 | G4 A4 | (BAGc B2) A2 | G4 ^F4 | G4 z2 c2 | c4 G4 | %10
w: Bless-|ings a-|bound _ _ where-|e’er he|reigns, The|pris- ’ner|leaps _ _ _ _ to|lose his|chains, The|wea- ry|
w: Je-|sus shall|reign _ _ wher-|e’er the|sun Doth|his suc-|ces- * * * * sive|jour- neys|run; His|king- dom|
w: For|him shall|end- * * less|prayer be|made, And|prai- ses|throng _ _ _ _ to|crown his|head: His|name like|
 !wedge!G4 z2 B2 | (c2 B2 c2) c2 | (c3 B/c/ !fermata!B2) G2 | G4 G4 | (G2 B2 c2) c2 | c4 B4 | c4 |] %17
w: find e-|ter- * * nal|rest, _ _ _ And|all the|sons _ _ of|want are|blest.|
w: stretch from|shore _ _ to|shore _ _ _ Till|moons shall|wax _ _ and|wane no|more.|
w: sweet per-|fume _ _ shall|rise _ _ _ With|ev- ’ry|morn- * * ing|sac- ri-|fice.|
V:4
 C,2 | C,4"^7" G,,4 | (C,2"^6" D,2"^6" E,2) F,2 |"^64" G,4"^7" G,,4 | C,4 z2 C2 |"^6" B,4"^´" A,4 | %6
w: Bless-|ings a-|bound _ _ where-|e’er he|reigns, The|pris- ’ner|
w: Je-|sus shall|reign _ _ wher-|e’er the|sun Doth|his suc-|
w: For|him shall|end- * * less|prayer be|made, And|prai- ses|
 G,6 C,2 |"^64" D,4"^7#" D,4 | G,,4 z2 C,2 | %9
w: leaps to|lose his|chains, The|
w: ces- sive|jour- neys|run; His|
w: throng to|crown his|head: His|
"^Notes: Original order of staves is Tenor - Alto - Air - [Bass], with the Alto part printed in the treble clef an octave abovesounding pitch. Only the first verse of the text is given in the source: three further verses have been added editorially.The notes given here as semiquavers in soprano and tenor parts in bar 12 are printed as small grace notes in the source." F,4"^643" D,4 | %10
w: wea- ry|
w: king- dom|
w: name like|
 !wedge!C,4 z2 G,2 | (C2 G,2"^6" A,B,) C2 |"^64" !fermata!G,6"^53""^642" F,2 |"^6" E,4"^643" D,4 | %14
w: find e-|ter- * * * nal|rest, And|all the|
w: stretch from|shore _ _ _ to|shore Till|moons shall|
w: sweet per-|fume _ _ _ shall|rise With|ev- ’ry|
 (C,2"^643" D,2"^6" E,2) F,2 |"^64" G,4"^7" G,,4 | C,4 |] %17
w: sons _ _ of|want are|blest.|
w: wax _ _ and|wane no|more.|
w: morn- * * ing|sac- ri-|fice.|

